FINK
CUT[ES REDEN UND TRAEUMEN DIE MENSCHEN]
REG[Europa, Mitteleuropa, Deutschland]
KEY[F0301  16 Bb 6/8]
MEL[-5_  3_.21_1_.-7-6_  -5__-5_-5__
    -5_  1_.-71_2_.12_  3__.2_0_
    -5_  3_.21_5_.4#3_  2_.32_2__
    2_  3__4#_5_.2-7_  2__.-5_0_
    -5_  2__-5_3__-5-5  4__2_5__
    31  6__6_6_.42_  5__.^__-7_  1__0__. //] >>
FCT[Jugend - Lied, Belehrung, Moral, Hoffnung]
